X:11401
T:Silver Spire, The
R:Reel
B:Tuneworks Tunebook (https://www.tuneworks.co.uk/)
G:Tuneworks
Z:Jon Warbrick <jon.warbrick@googlemail.com>
M:4/4
L:1/8
K:D
A, |: "D"D2 FE DEFA | dcde fdAF | "G"G2 BG "D"F2 AF | "A"EDEF G2 FE | 
"D"D2FE DEFA | dcde fdAF | "G"G2 BG "D"F2 AF | [1 "A"EDEF "D"D2 A,2 :| [2 "A"EDEF "D"D2 CB, |
|: "A"A,B,CD EFGE | "D"FDEF GABc | "G"dBBA Bcde | "A"gdgf eABc | 
"D"d2 fd "A"ceac | "G"BcdB "D"ADFD | "G"G2 BG "D"FAdB | [1 "A"BFGE "D"D2 CB, | :| [2 "A"AFGE "D"D2 |]